X:62
T:The curvy road to Corinth
R:Reel
O:USA
C:Larry Unger
B:The Portland Collection
Z:Transcription:Mike Long , chords:The Portland Collection
M:C|
L:1/8
K:G
"Em"B2eB gBeB|"D"dAeA fAeA|"Em"B2eB gBeg|"C"fedB "D"AGFA|\
"Em"B2eB gBeB|
"D"dAeA fAef|"C"gfed "G"BedB|"D/Bm"AGFD B,DFD:|\
|:"C"E3F G2E2|"G"GDAD BDGD|"Am"E3F G2E2|
"Bm"FEDB, D2F2|\
"C"E3F G2E2|"G"GDAD BDGB|"D"AdBe cBAG|"Bm"BAGF E2D2:|
